X:1
T:Now with Joyful Exultation
T:Text: Psalm 95; vers. Psalter, 1912, alt. Tune: John Zundel, 1870
T:87 87 D BEECHER www.hymnary.org/text/now_with_joyful_exultation
T:Now with Joyful Exultation
T:This hymn is in the public domain. You may freely use this score for personal and congregational worship. If you reproduce the score, please credit Hymnary.org as the source. 
T:This hymn is in the public domain. You may freely use this score for personal and congregational worship. If you reproduce the score, please credit Hymnary.org as the source. 
T:This hymn is in the public domain. You may freely use this score for personal and congregational worship. If you reproduce the score, please credit Hymnary.org as the source. 
Z:This hymn is in the public domain. You may freely use this score for personal and congregational worship. If you reproduce the score, please credit Hymnary.org as the source.
%%score ( 1 2 ) ( 3 4 )
L:1/8
M:4/4
K:Bb
V:1 treble nm="SOPRANO ALTO" snm="S. A."
V:2 treble 
V:3 bass nm="TENOR BASS" snm="T. B."
V:4 bass 
V:1
"^1""^2""^3""^4" F2 F2 G2 F2 | d2 cd c2 B2 | A2 G2 B2 G2 | F2 EF D4 | F2 F2 G2 F2 | d2 cd c2 B2 |1 %6
w: Now with joy- ful|ex- ul- * ta- tion|let us sing to|God our * praise;|to the Rock of|our sal- * va- tion|
w: For how great a|God, and * glo- rious,|is the LORD of|whom we * sing;|o- ver i- dol|gods vic- * to- rious,|
w: To the LORD such|might re- * veal- ing,|let us come with|rev- erence * meet,|and, be- fore our|Ma- ker * kneel- ing,|
w: While he of- fers|peace and * par- don|let us hear his|voice to- * day,|lest, if we our|hearts should _ har- den,|
 G2 e2 d2 B2 | A2 GA B4 | B2 B2 B2 A2 ||"^Page 2" G2 AG ^F2 D2 | d2 d2 e2 d2 | %11
w: loud ho- san- nas|let us * raise.|Thank- ful trib- ute|glad- ly * bring- ing,|let us come be-|
w: great is he, our|God and * King.|In his hand are|earth's deep * pla- ces,|al- so his are|
w: let us wor- ship|at his * feet.|He is our own|God who * leads us,|we the peo- ple|
w: we should pe- rish|in the * way|lest to us, so|un- be- * liev- ing,|he in judg- ment|
 c2 cd"^Now with Joyful Exultation" c4 | F2 F2 | G2 F2 | d2 cd c2 B2 | G2 e2 d2 B2 | A2 GA B4 |] %17
w: fore him * now,|and, with|psalms his|prais- es * sing- ing,|joy- ful in his|pres- ence * bow.|
w: all the * hills;|his the|sea whose|bounds he * trac- es,|his the land his|boun- ty * fills.|
w: of his * care;|with a|shep- herd's|hand he * feeds us|as his flock in|pas- tures * fair.|
w: should de- * clare:|"You, so|long my|Spi- rit * griev- ing,|ne- ver in my|rest will * share."|
V:2
 D2 D2 E2 D2 | F2 EF E2 D2 | F2 E2 G2 E2 | D2 C2 B,4 | D2 D2 E2 D2 | F2 EF E2 D2 |1 E2 G2 F2 F2 | %7
 E2 E2 D4 | D2 G2 G2 ^F2 || G2 D2 D2 D2 | D2 F2 G2 F2 | F2 =E2 (F2 _E2) | D2 D2 | E2 D2 | %14
 F2 EF E2 D2 | E2 G2 F2 F2 | E2 E2 D4 |] %17
V:3
 F,2 F,2 G,2 F,2 | B,2 A,2 A,2 B,2 | B,2 B,2 B,2 B,2 | B,2 A,2 F,4 | F,2 F,2 G,2 F,2 | %5
 B,2 A,2 A,2 B,2 |1 B,2 B,2 B,2 D2 | C2 F,2 F,4 | G,2 D2 D2 C2 || B,2 CB, A,2 D,2 | %10
 B,2 B,2 B,2 B,2 | A,2 B,2 A,4 | F,2 F,2 | G,2 F,2 | B,2 A,2 A,2 B,2 | B,2 B,2 B,2 D2 | %16
 C2 F,2 F,4 |] %17
V:4
 B,,2 B,,2 B,,2 B,,2 | B,,2 F,2 F,2 B,,2 | E,2 E,2 E,2 E,2 | F,2 F,,2 B,,4 | B,,2 B,,2 B,,2 B,,2 | %5
 B,,2 F,2 ^F,2 G,2 |1 E,2 E,2 F,2 F,2 | F,2 F,,2 B,,4 | G,,2 B,,2 D,2 D,2 || D,2 D,2 D,2 D,2 | %10
 B,,2 B,,2 B,2 B,,2 | C,2 C,2 F,4 | B,,2 B,,2 | B,,2 B,,2 | B,,2 F,2 ^F,2 G,2 | E,2 E,2 F,2 F,2 | %16
 F,2 F,,2 B,,4 |] %17

